svg/black/ht.svg

<svg width="32" height="32" viewBox="0 0 32 32" version="1.1" xmlns="http://www.w3.org/2000/svg" xmlns:xlink="http://www.w3.org/1999/xlink"><title>svg/black/ht</title><desc>Created with Sketch.</desc><g id="black/ht" stroke="none" stroke-width="1" fill="none" fill-rule="evenodd"><path d="M16,32 C7.163444,32 0,24.836556 0,16 C0,7.163444 7.163444,0 16,0 C24.836556,0 32,7.163444 32,16 C32,24.836556 24.836556,32 16,32 Z M18.3466667,10.5333333 C18.3466667,7.01333333 16.64,4.02666667 15.36,3.06666667 C15.36,3.06666667 15.2533333,2.96 15.2533333,3.17333333 C15.1466667,9.89333333 11.7333333,11.7066667 9.92,14.2666667 C5.54666667,19.92 9.6,26.2133333 13.76,27.3866667 C16.1066667,28.0266667 13.2266667,26.2133333 12.9066667,22.48 C12.3733333,17.7866667 18.3466667,14.3733333 18.3466667,10.5333333 Z M20.5866667,12.88 C20.3733333,13.7333333 19.52,15.5466667 18.3466667,17.2533333 C14.4,22.9066667 16.64,25.68 17.92,27.1733333 C18.6666667,28.0266667 17.92,27.1733333 19.7333333,26.32 C19.84,26.2133333 23.36,24.4 23.68,20.24 C24.1066667,16.1866667 21.5466667,13.6266667 20.5866667,12.88 Z" id="Combined-Shape" fill="#000" fill-rule="nonzero"/></g></svg>

<svg width="32" height="32" viewBox="0 0 32 32" xmlns="http://www.w3.org/2000/svg"><path d="M16 32C7.163 32 0 24.837 0 16S7.163 0 16 0s16 7.163 16 16-7.163 16-16 16zm2.347-21.467c0-3.52-1.707-6.506-2.987-7.466 0 0-.107-.107-.107.106-.106 6.72-3.52 8.534-5.333 11.094-4.373 5.653-.32 11.946 3.84 13.12 2.347.64-.533-1.174-.853-4.907-.534-4.693 5.44-8.107 5.44-11.947zm2.24 2.347c-.214.853-1.067 2.667-2.24 4.373-3.947 5.654-1.707 8.427-.427 9.92.747.854 0 0 1.813-.853.107-.107 3.627-1.92 3.947-6.08.427-4.053-2.133-6.613-3.093-7.36z"/></svg>
